usr/share/icons/biglinux-icons-material/scalable/apps/gnome-2048.svg

<svg width="24" height="24" viewBox="0 0 24 24" fill="none" xmlns="http://www.w3.org/2000/svg">
<path d="M22.2423 10.1311L22.2425 10.1353C22.3465 11.7382 22.3094 13.3373 22.1311 14.9331C22.0023 16.0131 21.7233 17.0508 21.2938 18.0481C20.5222 19.7146 19.2897 20.8511 17.565 21.486C16.0916 21.9829 14.5776 22.2444 13.0207 22.2707L13.0084 22.271L12.9962 22.2716C11.2216 22.3639 9.46564 22.2314 7.72672 21.874C6.17839 21.5282 4.96714 20.8934 4.05624 19.9931C3.14516 19.0927 2.49671 17.8893 2.1341 16.3462C1.81831 14.9163 1.6752 13.4695 1.70469 12.0047L1.70499 11.9897L1.70465 11.9747C1.66942 10.4196 1.83418 8.88717 2.19905 7.37607C2.57811 5.93852 3.21375 4.80969 4.08692 3.95735C4.96146 3.10368 6.10803 2.49441 7.5586 2.14954L7.55861 2.14955L7.56293 2.1485C8.24149 1.9826 8.92849 1.871 9.62425 1.81361C9.76847 1.81257 9.91155 1.79581 10.0521 1.762C11.4331 1.67451 12.814 1.67961 14.1948 1.77732C15.426 1.87347 16.6167 2.14005 17.7691 2.57739C19.606 3.3361 20.8464 4.63134 21.525 6.49918C21.93 7.67678 22.169 8.88685 22.2423 10.1311Z" fill="url(#paint0_radial_8_256)" stroke="#CB7148" stroke-width="1.4"/>
<path d="M5.94982 5.00001C5.82504 4.99983 5.70145 5.02428 5.58614 5.07195C5.47082 5.11962 5.36604 5.18957 5.27781 5.2778C5.18957 5.36603 5.11962 5.47084 5.07195 5.58615C5.02427 5.70147 4.99983 5.82503 5 5.94982V10.6989C5 11.2268 5.42332 11.6501 5.94982 11.6501H10.699C11.2268 11.6501 11.6514 11.2268 11.6514 10.7003V5.94982C11.6516 5.82481 11.6271 5.701 11.5792 5.58551C11.5314 5.47002 11.4612 5.36514 11.3727 5.27687C11.2842 5.1886 11.1791 5.1187 11.0635 5.07118C10.9478 5.02367 10.824 4.99948 10.699 5.00001H5.94982ZM8.1749 6.10855C9.26495 6.10855 9.76897 6.67739 9.76897 7.41423C9.76897 8.30982 8.89322 9.12076 8.03732 9.99386H9.86157V10.7003H6.74355V10.1976C6.98564 9.96871 7.2608 9.73326 7.60077 9.38006C8.25427 8.69481 8.96466 8.04129 8.96466 7.46716C8.96466 7.10072 8.74903 6.87189 8.1749 6.87189C7.71719 6.87189 7.35207 7.05576 6.97373 7.21847L6.73826 6.51868C7.05178 6.35597 7.56109 6.10855 8.1749 6.10855Z" fill="#DEE642"/>
<path d="M5.94982 12.3499C5.82504 12.3497 5.70145 12.3742 5.58614 12.4219C5.47082 12.4695 5.36604 12.5395 5.27781 12.6277C5.18957 12.7159 5.11962 12.8208 5.07195 12.9361C5.02427 13.0514 4.99983 13.1749 5 13.2997V18.0489C5 18.5767 5.42332 19 5.94982 19H10.699C11.2268 19 11.6514 18.5767 11.6514 18.0502V13.2997C11.6516 13.1747 11.6271 13.0509 11.5792 12.9354C11.5314 12.8199 11.4612 12.7151 11.3727 12.6268C11.2842 12.5385 11.1791 12.4686 11.0635 12.4211C10.9478 12.3736 10.824 12.3494 10.699 12.3499H5.94982ZM8.35746 13.5167H9.44222V16.3649H10.232V17.0832H9.44222V18.0489H8.63923V17.0832H6.46442V16.5144L8.35746 13.5167ZM8.63923 14.3925L8.54663 14.5882L7.42483 16.3649H8.63923V14.5882V14.3925Z" fill="#56C55C"/>
<path d="M13.301 12.3499C13.1762 12.3496 13.0524 12.3739 12.937 12.4215C12.8215 12.4691 12.7165 12.539 12.6282 12.6273C12.5398 12.7155 12.4697 12.8203 12.422 12.9357C12.3742 13.0511 12.3497 13.1748 12.3499 13.2997V18.0488C12.3499 18.5767 12.7732 19 13.2997 19H18.0502C18.5767 19 19 18.5767 19 18.0502V13.2997C19.0002 13.1749 18.9757 13.0514 18.9281 12.9361C18.8804 12.8207 18.8104 12.7159 18.7222 12.6277C18.634 12.5395 18.5292 12.4695 18.4139 12.4219C18.2985 12.3742 18.175 12.3497 18.0502 12.3499H13.301ZM15.6161 13.4572C16.7313 13.4572 17.2419 13.9149 17.2419 14.6266C17.2419 14.9851 17.0461 15.2536 16.7127 15.5156C17.2551 15.8092 17.4959 16.2339 17.4959 16.6903C17.4959 17.3967 16.8768 18.115 15.6544 18.115C14.5776 18.115 13.7799 17.5594 13.7799 16.7498C13.7799 16.2736 14.0934 15.8158 14.5578 15.5354C14.4013 15.4368 14.2716 15.3011 14.1804 15.1402C14.0893 14.9793 14.0394 14.7983 14.0352 14.6134C14.0352 13.9797 14.6041 13.4572 15.6161 13.4572ZM15.6161 14.1768C15.1703 14.1768 14.8713 14.4308 14.8713 14.6795C14.8713 15.0512 15.4137 15.2153 15.7907 15.3198C16.222 15.0777 16.4191 14.9269 16.4191 14.7113C16.4191 14.3528 16.0407 14.1768 15.6161 14.1768ZM15.5301 15.7378C14.9427 15.9005 14.6041 16.2736 14.6041 16.6254C14.6041 17.0051 15.0009 17.3702 15.6875 17.3702C16.3079 17.3702 16.6664 17.0368 16.6664 16.6519C16.6664 16.1294 16.1452 15.8939 15.5301 15.7365V15.7378Z" fill="#F19D1E"/>
<defs>
<radialGradient id="paint0_radial_8_256" cx="0" cy="0" r="1" gradientUnits="userSpaceOnUse" gradientTransform="translate(12 1) rotate(90) scale(22)">
<stop stop-color="#F9F9F9"/>
<stop offset="1" stop-color="#CCCCCC"/>
</radialGradient>
</defs>
</svg>

<svg xmlns="http://www.w3.org/2000/svg" width="24" height="24" fill="none"><path fill="url(#a)" stroke="#CB7148" stroke-width="1.4" d="M22.242 10.131v.004a27.24 27.24 0 0 1-.11 4.798 11.18 11.18 0 0 1-.838 3.115c-.772 1.667-2.004 2.803-3.729 3.438a14.921 14.921 0 0 1-4.544.785h-.025a20.72 20.72 0 0 1-5.27-.397c-1.548-.346-2.759-.98-3.67-1.88-.91-.901-1.56-2.105-1.922-3.648a18.346 18.346 0 0 1-.43-4.341l.001-.015v-.015a17.79 17.79 0 0 1 .494-4.599c.38-1.437 1.015-2.566 1.888-3.419.874-.853 2.021-1.463 3.472-1.807l.004-.002a13.253 13.253 0 0 1 2.061-.334c.144-.001.288-.018.428-.052a30.924 30.924 0 0 1 4.143.015c1.231.096 2.422.363 3.574.8 1.837.76 3.077 2.054 3.756 3.922.405 1.178.644 2.388.717 3.632Z"/><path fill="#DEE642" d="M5.95 5a.948.948 0 0 0-.95.95v4.749c0 .528.423.951.95.951h4.749a.949.949 0 0 0 .952-.95V5.95A.947.947 0 0 0 10.7 5h-4.75Zm2.225 1.109c1.09 0 1.594.568 1.594 1.305 0 .896-.876 1.707-1.732 2.58h1.825v.706H6.744v-.502c.242-.23.517-.465.857-.818.653-.685 1.364-1.339 1.364-1.913 0-.366-.216-.595-.79-.595-.458 0-.823.184-1.201.346l-.236-.7c.314-.162.823-.41 1.437-.41Z"/><path fill="#56C55C" d="M5.95 12.35a.947.947 0 0 0-.95.95v4.749c0 .528.423.951.95.951h4.749a.949.949 0 0 0 .952-.95V13.3a.947.947 0 0 0-.952-.95h-4.75Zm2.407 1.167h1.085v2.848h.79v.718h-.79v.966H8.64v-.966H6.464v-.569l1.893-2.997Zm.282.876-.092.195-1.122 1.777h1.214v-1.972Z"/><path fill="#F19D1E" d="M13.301 12.35a.949.949 0 0 0-.951.95v4.749c0 .528.423.951.95.951h4.75c.527 0 .95-.423.95-.95V13.3a.949.949 0 0 0-.95-.95h-4.749Zm2.315 1.107c1.115 0 1.626.458 1.626 1.17 0 .358-.196.627-.53.889.543.293.784.718.784 1.174 0 .707-.62 1.425-1.842 1.425-1.076 0-1.874-.556-1.874-1.365 0-.476.313-.934.778-1.215a1.12 1.12 0 0 1-.523-.922c0-.633.57-1.156 1.581-1.156Zm0 .72c-.446 0-.745.254-.745.503 0 .371.543.535.92.64.431-.242.628-.393.628-.609 0-.358-.378-.534-.803-.534Zm-.086 1.56c-.587.163-.926.537-.926.888 0 .38.397.745 1.084.745.62 0 .978-.333.978-.718 0-.523-.52-.758-1.136-.916v.002Z"/><defs><radialGradient id="a" cx="0" cy="0" r="1" gradientTransform="matrix(0 22 -22 0 12 1)" gradientUnits="userSpaceOnUse"><stop stop-color="#F9F9F9"/><stop offset="1" stop-color="#CCC"/></radialGradient></defs></svg>
